X: 11594
M: 2/4
L: 1/16
K: Bb
(FG) |\
e2ga g2e2 | e2fg f2d2 | c2ef e2c2 | B4 z2 :|
|: !f!f2 |\
"_>"b2a2g2f2 | "_>"b2a2g2f2 | "_>"b2a2g2f2 | (fede c2c2) |\
"_>"a2g2f2e2 | "_>"a2g2f2e2 | "_>"a2g2f2e2 | d2B2B2 :|


